X:1
T:I Would Be Like  Jesus
T:I Would Be Like  Jesus
T:Bentley DeForest Ackley
T:James Rowe, 1911
T:Public Domain Courtesy of the Cyber Hymnal™
C:Bentley DeForest Ackley
Z:Public Domain
Z:Courtesy of the Cyber Hymnal™
%%score ( 1 2 ) 3
L:1/8
Q:1/4=190
M:6/4
K:Ab
V:1 treble 
V:2 treble 
V:3 bass 
V:1
 [Ec]4 [Ec]2 [=D=B]4 [DB]2 | [Ec]4 [Ec]2 [DB]4 [CA]2 | [CE]4 [CA]2 [CB]4 [CA]2 | A6 G6 | %4
w: 1.~Earth- ly plea- sures|vain- ly call me;|I would be like|Je- sus;|
w: 2.~He has brok- en|ev- ery fet- ter,|I would be like|Je- sus;|
w: 3.~All the way from|earth to glo- ry,|I would be like|Je- sus;|
w: 4.~That in Heav- en|He may meet me,|I would be like|Je- sus;|
 [Gd]4 [Gd]2 [^Fc]4 [Fc]2 | [Gd]4 [EB]2 [EG]4 E2 | [EA]4 [EB]2 [Ec]4 [A=d]2 | e6 (E4 E2) || %8
w: No- thing world- ly|shall en- thrall me;|I would be like|Je- sus. *|
w: That my soul may|serve Him bet- ter,|I would be like|Je- sus. *|
w: Tell- ing o’er and|o’er the sto- ry,|I would be like|Je- sus. *|
w: That His words “Well|done” may greet me,|I would be like|Je- sus. *|
"^Refrain" [Ec]4 [Ec]2 [Fd]4 [Ec]2 | [=Dc]4 [DB]2 [DF]6 | [EB]4 [DB]2 [Dc]4 [DB]2 | %11
w: |||
w: |||
w: Be like Je- sus,|this my song,|In the home and|
w: |||
 [CB]4 [CA]2 [CE]6 | [A,C]4 [CE]2 [EA]4 [EB]2 | [Ec]4 [_Ge]2 [Fd]6 | [Ec]4 [CA]2 [Ec]4 [CA]2 | %15
w: ||||
w: ||||
w: in the throng;|Be like Je- sus,|all day long!|I would be like|
w: ||||
 [DB]6 [CA]6 |] %16
w: |
w: |
w: Je- sus.|
w: |
V:2
 x12 | x12 | x12 | (D4 D2) (D4 D2) | x12 | x10 E2 | x12 | (G4 G2) x6 || x12 | x12 | x12 | x12 | %12
 x12 | x12 | x12 | x12 |] %16
V:3
 [A,,A,]4 [A,,A,]2 [A,,A,]4 [A,,A,]2 | [A,,A,]4 [A,,A,]2 [A,,E,]4 [A,,E,]2 | %2
 [A,,A,]4 [A,,A,]2 [A,,E,]4 [A,,E,]2 | ([B,,E,]4 [B,,E,]2) ([E,B,]4 [E,B,]2) | %4
 [E,B,]4 [E,B,]2 [E,=A,]4 [E,A,]2 | [E,B,]4 [E,G,]2 [D,B,]4 [D,G,]2 | [C,A,]4 [E,G,]2 A,4 [F,B,]2 | %7
 ([E,B,]4 [E,B,]2) ([E,G,]4 [E,G,]2) || [A,,A,]4 [A,,A,]2 [A,,A,]4 [A,,A,]2 | %9
 [B,,A,]4 [B,,F,]2 [B,,B,]6 | [E,G,]4 [E,G,]2 [E,G,]4 [E,G,]2 | [A,,E,]4 [A,,E,]2 [A,,A,]6 | %12
 [A,,E,]4 [A,,A,]2 [C,A,]4 [E,G,]2 | A,4 [C,A,]2 [D,A,]6 | [E,A,]4 [E,C]2 [E,A,]4 [E,C]2 | %15
 [E,G,]6 [E,A,]6 |] %16

